X:663
T:Mr. Dun's Frolick
R:Reel
B:The Athole Collection
M:C|
L:1/8
K:F
f|cF F/F/F cF A2|cF F/F/F cBAf|cF F/F/F cFAc|BAGA Bcd:|
e|f>gfd c>dcA|fgfc e>fga|fgfd c>dcA|gG G/G/G Bcde|f<gfd c>dcA|
fgfd efga|fadf cfAf|gG G/G/G Bcd||

